_includes/icons/ios-download.svg

<svg fill="#666" height="50" viewBox="0 0 50 50" width="50" xmlns="http://www.w3.org/2000/svg"><path d="m24.90625.96875c-.042969.007813-.085937.019531-.125.03125-.464844.105469-.792969.523438-.78125 1v30.5625l-6.28125-6.28125c-.242187-.25-.597656-.355469-.9375-.28125-.375.066406-.675781.339844-.78125.703125-.105469.367188.003906.757813.28125 1.015625l8 8 .71875.6875.71875-.6875 8-8c.398438-.398437.398438-1.039062 0-1.4375-.398437-.398437-1.039062-.398437-1.4375 0l-6.28125 6.28125v-30.5625c.011719-.289062-.105469-.566406-.3125-.761719-.210937-.199218-.496094-.296875-.78125-.269531zm-17.90625 15.03125v34h36v-34h-10c-.359375-.003906-.695312.183594-.878906.496094-.179688.3125-.179688.695312 0 1.007812.183594.3125.519531.5.878906.496094h8v30h-32v-30h8c.359375.003906.695313-.183594.878906-.496094.179688-.3125.179688-.695312 0-1.007812-.183593-.3125-.519531-.5-.878906-.496094z"/></svg>

<svg xmlns="http://www.w3.org/2000/svg" viewBox="0 0 50 50" width="50" height="50" fill="#666"><path d="M 24.90625 0.96875 C 24.863281 0.976563 24.820313 0.988281 24.78125 1 C 24.316406 1.105469 23.988281 1.523438 24 2 L 24 32.5625 L 17.71875 26.28125 C 17.476563 26.03125 17.121094 25.925781 16.78125 26 C 16.40625 26.066406 16.105469 26.339844 16 26.703125 C 15.894531 27.070313 16.003906 27.460938 16.28125 27.71875 L 24.28125 35.71875 L 25 36.40625 L 25.71875 35.71875 L 33.71875 27.71875 C 34.117188 27.320313 34.117188 26.679688 33.71875 26.28125 C 33.320313 25.882813 32.679688 25.882813 32.28125 26.28125 L 26 32.5625 L 26 2 C 26.011719 1.710938 25.894531 1.433594 25.6875 1.238281 C 25.476563 1.039063 25.191406 0.941406 24.90625 0.96875 Z M 7 16 L 7 50 L 43 50 L 43 16 L 33 16 C 32.640625 15.996094 32.304688 16.183594 32.121094 16.496094 C 31.941406 16.808594 31.941406 17.191406 32.121094 17.503906 C 32.304688 17.816406 32.640625 18.003906 33 18 L 41 18 L 41 48 L 9 48 L 9 18 L 17 18 C 17.359375 18.003906 17.695313 17.816406 17.878906 17.503906 C 18.058594 17.191406 18.058594 16.808594 17.878906 16.496094 C 17.695313 16.183594 17.359375 15.996094 17 16 Z"/></svg>
